frontend/public/svg/emojis/happy-emoji.svg

<svg width="160" height="155" viewBox="0 0 160 155" fill="none" xmlns="http://www.w3.org/2000/svg">
<path d="M78.6337 112.149C68.465 112.2 60.044 110.437 52.9637 104.775C50.5781 102.868 48.7417 100.179 46.9811 97.6218C45.9695 96.1517 46.1096 94.2009 47.9291 93.2048C49.473 92.3597 51.0372 92.8371 52.1153 94.2923C58.5773 103.015 67.9124 104.934 77.8956 104.865C81.6802 104.84 85.4851 103.972 89.2331 103.245C95.8312 101.966 101.133 98.6679 104.732 92.8275C105.588 91.5023 106.59 90.2771 107.719 89.1745C109.149 87.72 110.872 86.7874 112.822 88.1932C114.555 89.4425 114.521 91.1815 113.803 93.0477C111.736 98.5894 107.816 103.246 102.708 106.228C94.9015 110.867 86.2177 111.916 78.6337 112.149Z" fill="black"/>
<path d="M58.658 46.9225L54.2952 45.9549C44.5144 43.788 36.0399 45.7112 29.3552 53.6812C28.6597 54.51 27.1551 54.6602 26.0263 55.1254C25.6992 53.8389 24.6937 52.1515 25.1724 51.3335C26.6208 48.8687 28.2751 46.2549 30.509 44.5688C39.7399 37.6118 49.9858 37.2435 60.6062 40.8445C62.3078 41.4221 63.6486 42.6098 63.1827 44.6331C62.7256 46.6307 61.1181 47.127 58.658 46.9225Z" fill="black"/>
<path d="M51.8751 56.8652C57.3688 56.9803 61.9158 59.3957 65.6076 63.5331C66.2438 64.1678 66.6721 64.9809 66.8359 65.8645C66.9213 67.0204 66.9003 68.6042 66.2123 69.2671C65.6469 69.8089 63.91 69.5834 62.9329 69.1534C61.4127 68.4844 60.099 67.3494 58.6933 66.4184C51.0693 61.3682 44.2578 63.074 39.7196 70.981C39.1217 72.0225 37.5087 73.2345 36.4998 73.1262C34.5638 72.9176 34.5442 70.9594 34.7256 69.3491C35.4224 63.1627 41.6407 57.8153 49.0202 57.0251C49.9154 56.9276 50.8201 56.9201 51.8751 56.8652Z" fill="black"/>
<path d="M112.27 35.8912C116.93 35.7287 121.291 37.1101 125.411 39.3548C126.403 39.8832 127.334 40.5189 128.187 41.2507C129.538 42.4364 130.46 43.9391 129.447 45.7199C128.344 47.6573 126.468 47.5062 124.669 46.9056C123.721 46.5478 122.819 46.078 121.982 45.506C114.616 40.8581 107.326 41.1356 100.075 45.7707C98.8842 46.6191 97.6222 47.3626 96.3032 47.9931C95.5888 48.2897 94.2176 48.3093 93.8654 47.8732C93.5999 47.473 93.4193 47.0228 93.3348 46.55C93.2502 46.0773 93.2635 45.5922 93.3738 45.1248C93.7337 44.1831 94.3359 43.353 95.1195 42.7187C99.9164 38.2455 105.434 35.5222 112.27 35.8912Z" fill="black"/>
<path d="M113.689 54.1131C117.508 53.9818 121.401 55.5399 124.687 58.5566C125.77 59.5384 126.705 60.6722 127.463 61.9227C128.873 64.3103 128.6 66.9491 127.043 68.1003C125.412 69.307 123.458 68.6292 121.308 66.1108C115.46 59.2595 109.032 58.839 102.18 64.8609C101.926 65.0836 101.689 65.3259 101.435 65.5507C100.239 66.6193 98.9008 67.9458 97.3399 66.5665C95.6471 65.07 96.4725 63.3081 97.5675 61.7391C100.821 57.0811 107.023 54.0116 113.689 54.1131Z" fill="black"/>
<path d="M3.80298 55.9748C-3.20684 83.5259 2.93151 107.831 22.0602 128.223C22.5579 128.75 23.0658 129.277 23.5737 129.785C33.8487 140.06 46.6474 146.404 56.7891 150.819C61.1411 152.719 83.4754 155.028 89.5176 154.128C125.429 148.765 149.061 128.511 157.292 94.625C158.864 87.9873 159.647 81.1873 159.624 74.3661C159.662 58.2974 152.897 39.6163 138.944 25.6251C137.508 24.4373 136.076 23.2069 134.692 22.0145C131.69 19.4339 128.587 16.762 125.341 14.4834C100.543 -2.97008 74.7775 -3.06774 48.7635 6.1875C25.211 14.5618 10.0849 31.3158 3.80298 55.9748ZM48.8644 14.4373C71.6897 4.95246 94.5915 3.27855 116.928 17.4844C121.012 20.0847 131.9 28.8849 133.615 30.2067L133.724 30.2879L133.816 30.3889C142.53 39.6299 152.505 56.5268 152.288 73.8963C152.216 81.3232 151.21 88.7114 149.296 95.8878C143.622 116.511 130.057 131.541 107.826 141.821C85.2259 152.642 52.8149 141.702 44.1914 136.01C34.6598 129.493 26.3197 121.386 19.5358 112.043C8.89649 96.9802 6.50888 75.3276 12.226 55.5339C14.9018 46.3948 19.5776 37.9656 25.9147 30.8574C32.2517 23.7493 40.0911 18.1403 48.8644 14.4373Z" fill="black"/>
</svg>

<svg xmlns="http://www.w3.org/2000/svg" width="160" height="155" fill="none" viewBox="0 0 160 155"><path fill="#000" d="M78.634 112.149c-10.169.051-18.59-1.712-25.67-7.374-2.386-1.907-4.222-4.596-5.983-7.153-1.012-1.47-.871-3.421.948-4.417 1.544-.845 3.108-.368 4.186 1.087 6.462 8.723 15.797 10.642 25.78 10.573 3.785-.025 7.59-.893 11.338-1.62 6.598-1.279 11.9-4.577 15.499-10.418a21 21 0 0 1 2.987-3.653c1.43-1.454 3.153-2.387 5.103-.98 1.733 1.248 1.699 2.987.981 4.854a25.64 25.64 0 0 1-11.095 13.18c-7.806 4.639-16.49 5.688-24.074 5.921M58.658 46.923l-4.363-.968c-9.78-2.167-18.255-.244-24.94 7.726-.695.829-2.2.98-3.329 1.444-.327-1.286-1.332-2.974-.854-3.791 1.449-2.465 3.103-5.08 5.337-6.765 9.23-6.957 19.477-7.326 30.097-3.725 1.702.578 3.043 1.766 2.577 3.79-.457 1.997-2.065 2.493-4.525 2.288m-6.783 9.943c5.494.115 10.04 2.53 13.733 6.668a4.43 4.43 0 0 1 1.228 2.332c.085 1.155.064 2.74-.624 3.402-.565.542-2.302.316-3.28-.114-1.52-.669-2.833-1.804-4.239-2.735-7.624-5.05-14.435-3.344-18.973 4.563-.598 1.041-2.211 2.254-3.22 2.145-1.936-.208-1.956-2.167-1.774-3.777.696-6.186 6.915-11.534 14.294-12.324.895-.097 1.8-.105 2.855-.16m60.395-20.974c4.66-.162 9.021 1.22 13.141 3.464a15.3 15.3 0 0 1 2.776 1.896c1.351 1.185 2.273 2.688 1.26 4.469-1.103 1.937-2.979 1.786-4.778 1.186a12.7 12.7 0 0 1-2.687-1.4c-7.366-4.648-14.656-4.37-21.907.265a25.3 25.3 0 0 1-3.772 2.222c-.714.297-2.085.316-2.438-.12a3.5 3.5 0 0 1-.491-2.748 5.7 5.7 0 0 1 1.746-2.406c4.796-4.474 10.314-7.197 17.15-6.828m1.419 18.222c3.819-.131 7.712 1.427 10.998 4.444a15.1 15.1 0 0 1 2.776 3.366c1.41 2.387 1.137 5.026-.42 6.177-1.631 1.207-3.585.53-5.735-1.99-5.848-6.85-12.276-7.271-19.128-1.25-.254.224-.491.466-.745.69-1.196 1.07-2.534 2.396-4.095 1.017-1.693-1.497-.868-3.259.227-4.828 3.254-4.658 9.456-7.727 16.122-7.626"/><path fill="#000" d="M3.803 55.975c-7.01 27.55-.871 51.856 18.257 72.248a77 77 0 0 0 1.514 1.562c10.275 10.275 23.073 16.619 33.215 21.034 4.352 1.9 26.686 4.209 32.729 3.309 35.911-5.363 59.543-25.617 67.774-59.503a86.6 86.6 0 0 0 2.332-20.259c.038-16.069-6.727-34.75-20.68-48.74a279 279 0 0 1-4.252-3.611c-3.002-2.581-6.105-5.253-9.351-7.532C100.543-2.97 74.778-3.067 48.764 6.188 25.21 14.562 10.084 31.316 3.803 55.975m45.061-41.538C71.69 4.952 94.592 3.28 116.928 17.484c4.084 2.6 14.972 11.4 16.687 12.723l.109.08.092.102c8.714 9.24 18.689 26.138 18.472 43.507a88.7 88.7 0 0 1-2.992 21.992c-5.674 20.623-19.239 35.653-41.47 45.933-22.6 10.821-55.011-.119-63.635-5.811a100.7 100.7 0 0 1-24.655-23.967c-10.64-15.063-13.027-36.715-7.31-56.51a64.18 64.18 0 0 1 36.638-41.096"/></svg>
